rospo-light/16x16/actions/quickopen-function.svg

<svg height="16" viewBox="0 0 16 16" width="16" xmlns="http://www.w3.org/2000/svg"><path d="m6.234375 1-.15625 1.84375a5.5495 5.5 0 0 0 -1.6210938.9296875l-1.6914062-.7890625-1.765625 3.03125 1.5351562 1.0566406a5.5495 5.5 0 0 0 -.0839843.9277344 5.5495 5.5 0 0 0  .0800781.9316406l-1.53125 1.0527344 1.765625 3.03125 1.6875-.787109a5.5495 5.5 0 0 0 1.625.923828l.15625 1.847656h3.53125l.15625-1.84375a5.5495 5.5 0 0 0 1.621094-.929688l1.691406.789063 1.765625-3.03125-1.535156-1.0566406a5.5495 5.5 0 0 0  .083984-.9277344 5.5495 5.5 0 0 0 -.080078-.9316406l1.53125-1.0527344-1.765625-3.03125-1.6875.7871094a5.5495 5.5 0 0 0 -1.625-.9238282l-.15625-1.8476562zm2.765625 4-.6992188 2.0996094 2.6992188.9003906-4 3 .6992188-2.0996094-2.6992188-.9003906z" fill="#5c616c"/></svg>

<?xml version="1.0" encoding="UTF-8" standalone="no"?>
<svg xmlns="http://www.w3.org/2000/svg" width="22" height="22" viewBox="0 0 22 22">
 <defs>
  <style type="text/css" id="current-color-scheme">
   .ColorScheme-Text { color:#5c616c; } .ColorScheme-Highlight { color:#5294e2; }
  </style>
 </defs>
 <path style="fill:currentColor;opacity:1" class="ColorScheme-Text" transform="translate(3 3)" d="M 6.234375 1 L 6.078125 2.84375 A 5.5495 5.5 0 0 0 4.4570312 3.7734375 L 2.765625 2.984375 L 1 6.015625 L 2.5351562 7.0722656 A 5.5495 5.5 0 0 0 2.4511719 8 A 5.5495 5.5 0 0 0 2.53125 8.9316406 L 1 9.984375 L 2.765625 13.015625 L 4.453125 12.228516 A 5.5495 5.5 0 0 0 6.078125 13.152344 L 6.234375 15 L 9.765625 15 L 9.921875 13.15625 A 5.5495 5.5 0 0 0 11.542969 12.226562 L 13.234375 13.015625 L 15 9.984375 L 13.464844 8.9277344 A 5.5495 5.5 0 0 0 13.548828 8 A 5.5495 5.5 0 0 0 13.46875 7.0683594 L 15 6.015625 L 13.234375 2.984375 L 11.546875 3.7714844 A 5.5495 5.5 0 0 0 9.921875 2.8476562 L 9.765625 1 L 6.234375 1 z M 9 5 L 8.3007812 7.0996094 L 11 8 L 7 11 L 7.6992188 8.9003906 L 5 8 L 9 5 z"/>
</svg>
